X:1
T:Dingle Regatta, The
S:P.V. O'Donnel
L:1/8
R:Slide
M:6/8
K:D
dcd e2d | BAB d2B | A3 AGA | B2A GAB |
dcd e2d | BAB d2B | A3 B2A | G3 G3 :|
|: 
